X:1
T:Oh, where are you going, Billy boy
M:2/4
L:1/8
K:G
 D| G2 G3/2 G/2| G2 B2| A/2 A3/2 A/2 A3/2| G3 D| G2 G3/2 G/2| B/2 B3 G/2|\
 B2 B2| c/2 d3 B/2| d3/2 d/2 d3/2 B/2| d2 B3/2 A/2| F3/2 B/2 A3/2 G/2|\
 E2 D3/2 F/2| G3 A| B2 G3/2 G/2| G/2 F3/2 ED| E G3|
